public/logos/18_eu/15.svg

<svg xmlns="http://www.w3.org/2000/svg" viewBox="0 0 38 38"  fill-rule="nonzero" stroke-linejoin="round" stroke-miterlimit="2" xmlns:v="https://vecta.io/nano"><path d="M36.72 18.72c0-9.875-8.125-18-18-18s-18 8.125-18 18 8.125 18 18 18 18-8.125 18-18" fill="#202020"/><path d="M19.39 24.08V24l.91-.29a7.44 7.44 0 0 0 2.19 2.74c.723.486 1.579.734 2.45.71 1.004.021 1.968-.404 2.63-1.16a4.41 4.41 0 0 0 1-3 4.14 4.14 0 0 0-1-3 3.65 3.65 0 0 0-2.82-1.11c-.534-.004-1.065.084-1.57.26a6.48 6.48 0 0 0-1.68.94l-.57-.31.25-5.73-.22-5 .2-.17 5.67.17 4.47-.17.17.31a8.72 8.72 0 0 0-.17 1.57l.06 1.4-.2.17-5.07-.09-3.37.06-.14 4.61a7.32 7.32 0 0 1 1.8-.82 7.49 7.49 0 0 1 1.88-.23 6.07 6.07 0 0 1 4.3 1.43 5.24 5.24 0 0 1 1.51 4 7.06 7.06 0 0 1-2.36 5.27 8.39 8.39 0 0 1-5.93 2.22 8.7 8.7 0 0 1-1.8-.17c-.558-.106-1.102-.277-1.62-.51-.251-1.356-.575-2.698-.97-4.02zm-13 4.39l-.14-.17v-.83l.14-.17a19.91 19.91 0 0 0 3-.37.66.66 0 0 0 .37-.34c.201-.899.282-1.82.24-2.74l.11-7.12-.08-4.54c-.08-.29-.12-.25-.26-.25-.14.008-.276.046-.4.11l-3.78 1.74-.2-.12c-.049-.563-.142-1.122-.28-1.67l.11-.23c2.951-.807 5.855-1.775 8.7-2.9l.37.23c-.15 1.28-.23 3.05-.29 5.27l-.08 8.07a26.33 26.33 0 0 0 .17 4c.036.197.147.373.31.49a11.22 11.22 0 0 0 2.85.34l.14.17v.83l-.14.17h-1.74c-1.74 0-2.93-.06-3.53-.06l-5.59.09z" fill="#fff"/></svg>

<?xml version="1.0" encoding="UTF-8" standalone="no"?>
<!DOCTYPE svg PUBLIC "-//W3C//DTD SVG 1.1//EN" "http://www.w3.org/Graphics/SVG/1.1/DTD/svg11.dtd">
<svg width="100%" height="100%" viewBox="0 0 38 38" version="1.1" xmlns="http://www.w3.org/2000/svg" xmlns:xlink="http://www.w3.org/1999/xlink" xml:space="preserve" xmlns:serif="http://www.serif.com/" style="fill-rule:evenodd;clip-rule:evenodd;stroke-linejoin:round;stroke-miterlimit:2;">
    <path d="M36.72,18.72C36.72,8.845 28.595,0.72 18.72,0.72C8.845,0.72 0.72,8.845 0.72,18.72C0.72,28.595 8.845,36.72 18.72,36.72C28.595,36.72 36.72,28.595 36.72,18.72" style="fill:rgb(32,32,32);fill-rule:nonzero;"/>
    <path d="M19.39,24.08L19.39,24L20.3,23.71C20.801,24.785 21.552,25.724 22.49,26.45C23.213,26.936 24.069,27.184 24.94,27.16C25.944,27.181 26.908,26.756 27.57,26C28.263,25.158 28.619,24.089 28.57,23C28.647,21.907 28.287,20.828 27.57,20C26.836,19.239 25.806,18.834 24.75,18.89C24.216,18.886 23.685,18.974 23.18,19.15C22.576,19.378 22.01,19.695 21.5,20.09L20.93,19.78C21.1,17.44 21.18,15.56 21.18,14.05C21.18,12.2 21.1,10.54 20.96,9.05L21.16,8.88C23.16,8.99 25.16,9.05 26.83,9.05C28.5,9.05 29.99,8.99 31.3,8.88L31.47,9.19C31.366,9.707 31.309,10.233 31.3,10.76C31.3,11.01 31.3,11.47 31.36,12.16L31.16,12.33C29.45,12.27 27.77,12.24 26.09,12.24C24.95,12.24 23.84,12.24 22.72,12.3L22.58,16.91C23.14,16.556 23.746,16.281 24.38,16.09C24.994,15.934 25.626,15.857 26.26,15.86C27.824,15.764 29.365,16.276 30.56,17.29C31.609,18.347 32.158,19.803 32.07,21.29C32.071,23.302 31.211,25.221 29.71,26.56C28.1,28.046 25.97,28.843 23.78,28.78C23.176,28.786 22.572,28.729 21.98,28.61C21.422,28.504 20.878,28.333 20.36,28.1C20.109,26.744 19.785,25.402 19.39,24.08ZM6.39,28.47L6.25,28.3L6.25,27.47L6.39,27.3C7.398,27.253 8.401,27.129 9.39,26.93C9.553,26.87 9.686,26.748 9.76,26.59C9.961,25.691 10.042,24.77 10,23.85C10.08,21.17 10.11,18.78 10.11,16.73C10.11,13.99 10.11,12.48 10.03,12.19C9.95,11.9 9.91,11.94 9.77,11.94C9.63,11.948 9.494,11.986 9.37,12.05L5.59,13.79L5.39,13.67C5.341,13.107 5.248,12.548 5.11,12L5.22,11.77C8.171,10.963 11.075,9.995 13.92,8.87L14.29,9.1C14.14,10.38 14.06,12.15 14,14.37C13.94,16.59 13.92,19.27 13.92,22.44C13.875,23.776 13.932,25.113 14.09,26.44C14.126,26.637 14.237,26.813 14.4,26.93C15.332,27.165 16.289,27.279 17.25,27.27L17.39,27.44L17.39,28.27L17.25,28.44L15.51,28.44C13.77,28.44 12.58,28.38 11.98,28.38C10.27,28.38 8.41,28.41 6.42,28.47L6.39,28.47Z" style="fill:white;fill-rule:nonzero;"/>
</svg>
